storage/app/icons/phosphoricons/bold/lockers-bold.svg

<svg xmlns="http://www.w3.org/2000/svg" fill="currentColor" viewBox="0 0 256 256"><path d="M192 80a12 12 0 0 1-12 12h-16a12 12 0 0 1 0-24h16a12 12 0 0 1 12 12m-12 28h-16a12 12 0 0 0 0 24h16a12 12 0 0 0 0-24M76 92h16a12 12 0 0 0 0-24H76a12 12 0 0 0 0 24m16 16H76a12 12 0 0 0 0 24h16a12 12 0 0 0 0-24m136-60v176a12 12 0 0 1-24 0v-12h-64v12a12 12 0 0 1-24 0v-12H52v12a12 12 0 0 1-24 0V48a20 20 0 0 1 20-20h160a20 20 0 0 1 20 20M116 188V52H52v136Zm24 0h64V52h-64Z"/></svg>

<svg xmlns="http://www.w3.org/2000/svg" viewBox="0 0 256 256" fill="currentColor"><path d="M192,80a12,12,0,0,1-12,12H164a12,12,0,0,1,0-24h16A12,12,0,0,1,192,80Zm-12,28H164a12,12,0,0,0,0,24h16a12,12,0,0,0,0-24ZM76,92H92a12,12,0,0,0,0-24H76a12,12,0,0,0,0,24Zm16,16H76a12,12,0,0,0,0,24H92a12,12,0,0,0,0-24ZM228,48V224a12,12,0,0,1-24,0V212H140v12a12,12,0,0,1-24,0V212H52v12a12,12,0,0,1-24,0V48A20,20,0,0,1,48,28H208A20,20,0,0,1,228,48ZM116,188V52H52V188Zm24,0h64V52H140Z"/></svg>
